svg/u2600.svg

<svg viewBox="0 0 128 128" xmlns="http://www.w3.org/2000/svg">
  <path d="M37.41,41.95c-9.71,12.48-9.54,34.65,2.87,45.64c14.09,12.47,33.92,12.34,46.39,0.87 c14.95-13.76,14.09-36.66,0.87-49.63C74.25,25.79,50.5,25.11,37.41,41.95z" fill="#FCC11A"/>
  <path d="M53,37.67c-3.84-1.7-8.04,2.93-9.87,6.09c-1.83,3.17-3.53,9.38,0.37,10.97 c3.9,1.58,6.7-1.1,9.51-5.73C55.8,44.37,57.39,39.62,53,37.67z" fill="#FEE269"/>
  <path d="M63,20.27c-0.93,1.74-0.62,3.08,1.23,3.52c1.85,0.44,13.36,2.31,14.33,2.37 c1.41,0.09,1.93-0.97,1.76-2.2c-0.18-1.23-2.99-18.46-3.25-20.04s-1.93-3.16-3.52-1.05S63.7,18.96,63,20.27z" fill="#FFA722"/>
  <path d="M92.8,32.23c-1.81,0.56-1.76,1.67-0.79,3.08c0.97,1.41,7.65,11.6,8.26,12.31 c0.62,0.7,1.67,0.88,2.55-0.18c0.88-1.05,11.86-16.45,12.66-17.41c1.32-1.58,0.53-3.25-1.49-2.73 C112.45,27.71,93.94,31.88,92.8,32.23z" fill="#FFA722"/>
  <path d="M106.6,61.86c-1.3-0.74-2.99-0.53-3.43,1.14c-0.44,1.67-2.37,13.8-2.55,14.86s0.62,2.11,1.93,1.85 s19.45-2.95,20.66-3.25c2.11-0.53,2.81-2.64,0.62-4.22C122.41,71.21,107.83,62.56,106.6,61.86z" fill="#FFA722"/>
  <path d="M92.09,90.6c1.4-0.75,2.64-0.18,2.99,1.41c0.35,1.58,4.22,17.76,4.84,20.75 c0.31,1.5-1.41,2.73-2.81,1.85c-1.41-0.88-16.69-11.53-17.67-12.4c-1.41-1.23-0.43-2.51,0.26-3.16 C81.1,97.72,90.77,91.31,92.09,90.6z" fill="#FFA722"/>
  <path d="M49.54,99.48c-1.77-0.17-2.29,1.41-2.02,2.81c0.26,1.41,2.9,19.24,3.08,20.57 c0.26,1.93,2.29,2.73,3.6,0.79s10.35-16.4,11.08-17.76c1.32-2.46,0.35-2.99-0.97-3.6C63,101.68,51.39,99.66,49.54,99.48z" fill="#FFA722"/>
  <path d="M24.23,79c1.23-2.02,2.81-1.49,3.96,0.44c0.78,1.32,7.38,10.2,8,11.16c0.62,0.97,0.88,2.81-1.05,3.25 C33.19,94.3,17.46,98.43,15,98.87c-2.46,0.44-3.87-1.49-2.29-3.6C13.63,94.03,23.53,80.15,24.23,79z" fill="#FFA722"/>
  <path d="M20.89,63.7c2.25,1,3.31,0.64,3.78-0.97c0.62-2.11,2.46-11.78,2.55-13.98 c0.06-1.43-0.53-2.81-2.73-2.46S6.47,48.85,4.45,49.55c-2.35,0.82-2.18,3.4-0.62,4.22C5.68,54.74,19.3,63,20.89,63.7z" fill="#FFA722"/>
  <path d="M48.23,26.78c1.27-1.01,0.88-2.46-0.26-3.25c-1.14-0.79-15.26-11-17.05-12.4 c-1.58-1.23-3.52-0.79-2.99,2.02c0.38,2.02,4.88,19.7,5.19,20.92c0.35,1.41,1.41,2.11,2.64,1.23 C36.97,34.43,46.91,27.84,48.23,26.78z" fill="#FFA722"/>
</svg>

<svg viewBox="0 0 128 128" xmlns="http://www.w3.org/2000/svg">
  <defs/>
  <path d="M37.41,41.95 C27.7,54.43 27.87,76.6 40.28,87.59 C54.37,100.06 74.2,99.93 86.67,88.46 C101.62,74.7 100.76,51.8 87.54,38.83 C74.25,25.79 50.5,25.11 37.41,41.95 Z" fill="#FCC11A"/>
  <path d="M53,37.67 C49.16,35.97 44.96,40.6 43.13,43.76 C41.3,46.93 39.6,53.14 43.5,54.73 C47.4,56.31 50.2,53.63 53.01,49 C55.8,44.37 57.39,39.62 53,37.67 Z" fill="#FEE269"/>
  <path d="M63,20.27 C62.07,22.01 62.38,23.35 64.23,23.79 C66.08,24.23 77.59,26.1 78.56,26.16 C79.97,26.25 80.49,25.19 80.32,23.96 C80.14,22.73 77.33,5.5 77.07,3.92 C76.81,2.34 75.14,0.76 73.55,2.87 C71.96,4.98 63.7,18.96 63,20.27 Z" fill="#FFA722"/>
  <path d="M92.8,32.23 C90.99,32.79 91.04,33.9 92.01,35.31 C92.98,36.72 99.66,46.91 100.27,47.62 C100.89,48.32 101.94,48.5 102.82,47.44 C103.7,46.39 114.68,30.99 115.48,30.03 C116.8,28.45 116.01,26.78 113.99,27.3 C112.45,27.71 93.94,31.88 92.8,32.23 Z" fill="#FFA722"/>
  <path d="M106.6,61.86 C105.3,61.12 103.61,61.33 103.17,63 C102.73,64.67 100.8,76.8 100.62,77.86 C100.44,78.92 101.24,79.97 102.55,79.71 C103.86,79.45 122,76.76 123.21,76.46 C125.32,75.93 126.02,73.82 123.83,72.24 C122.41,71.21 107.83,62.56 106.6,61.86 Z" fill="#FFA722"/>
  <path d="M92.09,90.6 C93.49,89.85 94.73,90.42 95.08,92.01 C95.43,93.59 99.3,109.77 99.92,112.76 C100.23,114.26 98.51,115.49 97.11,114.61 C95.7,113.73 80.42,103.08 79.44,102.21 C78.03,100.98 79.01,99.7 79.7,99.05 C81.1,97.72 90.77,91.31 92.09,90.6 Z" fill="#FFA722"/>
  <path d="M49.54,99.48 C47.77,99.31 47.25,100.89 47.52,102.29 C47.78,103.7 50.42,121.53 50.6,122.86 C50.86,124.79 52.89,125.59 54.2,123.65 C55.51,121.71 64.55,107.25 65.28,105.89 C66.6,103.43 65.63,102.9 64.31,102.29 C63,101.68 51.39,99.66 49.54,99.48 Z" fill="#FFA722"/>
  <path d="M24.23,79 C25.46,76.98 27.04,77.51 28.19,79.44 C28.97,80.76 35.57,89.64 36.19,90.6 C36.81,91.57 37.07,93.41 35.14,93.85 C33.19,94.3 17.46,98.43 15,98.87 C12.54,99.31 11.13,97.38 12.71,95.27 C13.63,94.03 23.53,80.15 24.23,79 Z" fill="#FFA722"/>
  <path d="M20.89,63.7 C23.14,64.7 24.2,64.34 24.67,62.73 C25.29,60.62 27.13,50.95 27.22,48.75 C27.28,47.32 26.69,45.94 24.49,46.29 C22.29,46.64 6.47,48.85 4.45,49.55 C2.1,50.37 2.27,52.95 3.83,53.77 C5.68,54.74 19.3,63 20.89,63.7 Z" fill="#FFA722"/>
  <path d="M48.23,26.78 C49.5,25.77 49.11,24.32 47.97,23.53 C46.83,22.74 32.71,12.53 30.92,11.13 C29.34,9.9 27.4,10.34 27.93,13.15 C28.31,15.17 32.81,32.85 33.12,34.07 C33.47,35.48 34.53,36.18 35.76,35.3 C36.97,34.43 46.91,27.84 48.23,26.78 Z" fill="#FFA722"/>
</svg>
